coolalgebralydiathanks/src/main/res/raw/fg_cine_drama_17.cube
TITLE "FGCineDrama"
# Generated with IWLTBAP LUT Generator
# Website: http://luts.iwltbap.com
# LUT size
# LUT data points
# 
LUT_3D_SIZE 17
0.0509800000 0.1098040000 0.0901960000
0.0607845000 0.1078430000 0.1000000000
0.0705880000 0.1058820000 0.1019610000
0.1039215000 0.1117645000 0.0941175000
0.1725490000 0.1019610000 0.0862750000
0.2784315000 0.0941175000 0.0862745000
0.4431370000 0.0549020000 0.0823530000
0.6137255000 0.0019610000 0.0666665000
0.7568630000 0.0000000000 0.0509800000
0.8470590000 0.0000000000 0.0431370000
0.9215690000 0.0000000000 0.0431370000
0.9803920000 0.0000000000 0.0627450000
0.9960780000 0.0039220000 0.0941180000
0.9960785000 0.0019610000 0.1431370000
0.9960780000 0.0078430000 0.1764710000
0.9960780000 0.1215690000 0.2392160000
0.9921570000 0.2196080000 0.2901960000
0.0588240000 0.1058820000 0.0941175000
0.0588235000 0.1137250000 0.0862750000
0.0686275000 0.1137255000 0.0980390000
0.1274510000 0.1098040000 0.0882355000
0.1941175000 0.1137255000 0.0941180000
0.3196080000 0.1156860000 0.0862745000
0.4803920000 0.0921565000 0.0666670000
0.6372550000 0.0098040000 0.0509805000
0.7686275000 0.0019610000 0.0431375000
0.8568630000 0.0019610000 0.0352940000
0.9294115000 0.0058825000 0.0333335000
0.9784315000 0.0019610000 0.0627450000
0.9941175000 0.0058825000 0.0921570000
0.9960785000 0.0117645000 0.1509800000
0.9921570000 0.0627455000 0.1921570000
0.9960780000 0.1588235000 0.2411765000
0.9980390000 0.2431375000 0.2980395000
0.0588240000 0.1176470000 0.0980390000
0.0568630000 0.1215690000 0.0862745000
0.0745100000 0.1254900000 0.0901960000
0.1294120000 0.1392155000 0.0843140000
0.2392160000 0.1529410000 0.0941180000
0.3823530000 0.1490200000 0.0705880000
0.5372550000 0.1450980000 0.0549020000
0.6803920000 0.1039220000 0.0431370000
0.7921570000 0.0666670000 0.0196080000
0.8725490000 0.0333335000 0.0196075000
0.9372550000 0.0196080000 0.0352940000
0.9882350000 0.0196080000 0.0627450000
0.9960780000 0.0392160000 0.1019610000
0.9980390000 0.0980390000 0.1490195000
0.9960780000 0.1529410000 0.1921570000
0.9980390000 0.2137255000 0.2549020000
0.9921570000 0.2784310000 0.3058820000
0.0470585000 0.1352940000 0.0980395000
0.0549020000 0.1411765000 0.0921570000
0.0686275000 0.1490195000 0.0862745000
0.1254900000 0.1823530000 0.0784315000
0.2411765000 0.2176470000 0.0568625000
0.4254900000 0.2352945000 0.0372550000
0.6117645000 0.2274510000 0.0156865000
0.7372550000 0.2117650000 0.0058825000
0.8254905000 0.1960785000 0.0000000000
0.8901965000 0.1862745000 0.0000000000
0.9549020000 0.1823525000 0.0313730000
0.9921570000 0.1764705000 0.0745100000
0.9941175000 0.1784315000 0.1235295000
1.0000000000 0.2019605000 0.1705885000
0.9960780000 0.2313725000 0.2215690000
0.9980390000 0.2745100000 0.2745095000
1.0000000000 0.3196080000 0.3294115000
0.0235290000 0.1764710000 0.1019610000
0.0333330000 0.1705880000 0.0941175000
0.0392160000 0.1882350000 0.0901960000
0.1176470000 0.2196080000 0.0784315000
0.2352940000 0.2745100000 0.0392160000
0.4372550000 0.3294120000 0.0000000000
0.6352940000 0.3411760000 0.0156860000
0.7686275000 0.3254905000 0.0039215000
0.8588240000 0.3019610000 0.0117650000
0.9176470000 0.2980390000 0.0019610000
0.9725490000 0.2901960000 0.0549020000
0.9980390000 0.2843140000 0.1019610000
1.0000000000 0.2823530000 0.1568630000
1.0000000000 0.2960785000 0.2000000000
0.9960780000 0.3098040000 0.2509800000
0.9980390000 0.3392155000 0.3039215000
0.9882350000 0.3843140000 0.3450980000
0.0000000000 0.2294115000 0.0882350000
0.0000000000 0.2372550000 0.0862745000
0.0156865000 0.2372550000 0.0803920000
0.0843140000 0.2745095000 0.0686275000
0.2117645000 0.3274510000 0.0254905000
0.4078430000 0.4019605000 0.0039215000
0.6137255000 0.4450980000 0.0039215000
0.7568630000 0.4568625000 0.0000000000
0.8529415000 0.4352940000 0.0000000000
0.9392160000 0.4117645000 0.0117645000
0.9960785000 0.3921570000 0.0843140000
1.0000000000 0.3803925000 0.1411765000
1.0000000000 0.3784315000 0.2000000000
1.0000000000 0.3843135000 0.2588235000
0.9980390000 0.3960780000 0.2980395000
1.0000000000 0.4196075000 0.3352940000
0.9941175000 0.4490200000 0.3725490000
0.0000000000 0.2980390000 0.0627450000
0.0000000000 0.3019610000 0.0588240000
0.0000000000 0.3019610000 0.0666670000
0.0411765000 0.3294115000 0.0470590000
0.1882350000 0.3843140000 0.0039220000
0.3725490000 0.4490195000 0.0000000000
0.5686270000 0.5176470000 0.0078430000
0.7294115000 0.5568625000 0.0019610000
0.8352940000 0.5568630000 0.0000000000
0.9156860000 0.5411765000 0.0117650000
0.9803920000 0.5058820000 0.1176470000
1.0000000000 0.4823530000 0.2000000000
0.9960780000 0.4627450000 0.2666670000
1.0000000000 0.4725490000 0.3000000000
0.9960780000 0.4823530000 0.3411760000
0.9980390000 0.4862745000 0.3862745000
1.0000000000 0.5019610000 0.4274510000
0.0019610000 0.3862745000 0.0313725000
0.0058825000 0.3784315000 0.0313725000
0.0000000000 0.3823530000 0.0450980000
0.0000000000 0.3901960000 0.0313725000
0.1529410000 0.4352940000 0.0039220000
0.3274510000 0.4941175000 0.0019610000
0.5137255000 0.5568625000 0.0039215000
0.6784310000 0.6215685000 0.0058825000
0.8039215000 0.6549020000 0.0039215000
0.8901960000 0.6470590000 0.0196080000
0.9647060000 0.6156865000 0.1411765000
0.9960780000 0.5882350000 0.2372550000
0.9941175000 0.5705885000 0.3058825000
1.0000000000 0.5549020000 0.3549020000
1.0000000000 0.5529410000 0.3941175000
1.0000000000 0.5607845000 0.4372550000
0.9960785000 0.5705880000 0.4666670000
0.0078430000 0.4509800000 0.0000000000
0.0019610000 0.4529410000 0.0019610000
0.0000000000 0.4588240000 0.0078430000
0.0000000000 0.4568630000 0.0078435000
0.1254900000 0.4823530000 0.0078430000
0.3000000000 0.5313725000 0.0019610000
0.4666670000 0.5843140000 0.0078430000
0.6117645000 0.6431370000 0.0000000000
0.7568630000 0.7098040000 0.0039220000
0.8490200000 0.7254900000 0.0352940000
0.9333330000 0.7137250000 0.1686270000
0.9882355000 0.6882350000 0.2666665000
1.0000000000 0.6588240000 0.3411760000
0.9980390000 0.6490195000 0.3862745000
1.0000000000 0.6352940000 0.4627450000
0.9980390000 0.6313725000 0.4823530000
1.0000000000 0.6431370000 0.5019610000
0.0000000000 0.5176470000 0.0039220000
0.0098040000 0.5196080000 0.0058825000
0.0039215000 0.5176470000 0.0039215000
0.0078435000 0.5176470000 0.0019610000
0.0862750000 0.5294115000 0.0019610000
0.2647060000 0.5666665000 0.0000000000
0.4254900000 0.6176475000 0.0039215000
0.5627450000 0.6705885000 0.0000000000
0.6784315000 0.7235290000 0.0156865000
0.7960785000 0.7705885000 0.0588235000
0.9019610000 0.7843140000 0.1803920000
0.9764705000 0.7705880000 0.3019610000
0.9980390000 0.7450980000 0.3686270000
0.9960785000 0.7235290000 0.4196075000
1.0000000000 0.7078430000 0.4705880000
1.0000000000 0.7039220000 0.5176470000
1.0000000000 0.6980390000 0.5607840000
0.0000000000 0.5803920000 0.0000000000
0.0039215000 0.5784315000 0.0000000000
0.0000000000 0.5882350000 0.0039220000
0.0411765000 0.5764710000 0.0058825000
0.1333330000 0.5843140000 0.0156860000
0.2588235000 0.6078430000 0.0313725000
0.4000000000 0.6509800000 0.0313730000
0.5333335000 0.6980390000 0.0666670000
0.6392160000 0.7411760000 0.1098040000
0.7274510000 0.7882355000 0.1666665000
0.8431370000 0.8313730000 0.2235290000
0.9352945000 0.8333335000 0.3039215000
0.9921570000 0.8196080000 0.3921570000
0.9980390000 0.7960785000 0.4549020000
1.0000000000 0.7764710000 0.4980390000
1.0000000000 0.7647060000 0.5490195000
1.0000000000 0.7529410000 0.5764710000
0.0372550000 0.6411765000 0.0294120000
0.0607840000 0.6470590000 0.0450980000
0.0921570000 0.6392155000 0.0352945000
0.1372550000 0.6450980000 0.0470590000
0.1980395000 0.6470590000 0.0705885000
0.2607840000 0.6490195000 0.0784315000
0.3862745000 0.6901960000 0.0980390000
0.5039215000 0.7254905000 0.1333335000
0.6039215000 0.7627450000 0.1862745000
0.6882355000 0.8078430000 0.2215690000
0.7705880000 0.8411765000 0.2764705000
0.8803925000 0.8686275000 0.3235295000
0.9725490000 0.8686275000 0.3980395000
0.9960780000 0.8549020000 0.4803920000
0.9941175000 0.8372545000 0.5274510000
0.9941175000 0.8215690000 0.5705880000
1.0000000000 0.8058825000 0.6137255000
0.1764710000 0.7137250000 0.0980390000
0.1803920000 0.7098040000 0.1000000000
0.2039220000 0.7098040000 0.1058820000
0.2313725000 0.7078430000 0.1117645000
0.2666670000 0.7098040000 0.1215690000
0.3117645000 0.7117645000 0.1294115000
0.3921570000 0.7254900000 0.1568630000
0.4921570000 0.7666665000 0.2000000000
0.5764710000 0.7921570000 0.2313730000
0.6490195000 0.8313725000 0.2843140000
0.7294120000 0.8588240000 0.3372550000
0.8215685000 0.8843135000 0.3686275000
0.9176470000 0.9019610000 0.4078430000
0.9862745000 0.9019610000 0.4705880000
0.9960780000 0.8862750000 0.5607840000
1.0000000000 0.8686275000 0.6039215000
1.0000000000 0.8509800000 0.6352940000
0.2705880000 0.7745100000 0.1745100000
0.2745095000 0.7666670000 0.1803920000
0.2921570000 0.7686275000 0.1784315000
0.3156865000 0.7764710000 0.1843135000
0.3392155000 0.7686275000 0.1882355000
0.3666665000 0.7705885000 0.2058820000
0.4137255000 0.7725490000 0.2254905000
0.4823530000 0.8019610000 0.2431375000
0.5627450000 0.8294120000 0.2882350000
0.6274510000 0.8568625000 0.3254900000
0.7000000000 0.8803925000 0.3686275000
0.7803920000 0.9000000000 0.4078435000
0.8666665000 0.9156860000 0.4549020000
0.9450980000 0.9294120000 0.5039215000
0.9960780000 0.9254900000 0.5490200000
0.9980390000 0.9078430000 0.6254900000
1.0000000000 0.8901960000 0.6647060000
0.3529410000 0.8313730000 0.2470590000
0.3588235000 0.8294120000 0.2647060000
0.3725490000 0.8313730000 0.2705880000
0.3823530000 0.8313725000 0.2647060000
0.4039220000 0.8313730000 0.2627450000
0.4235295000 0.8352945000 0.2764705000
0.4431370000 0.8352940000 0.3058820000
0.4941175000 0.8431370000 0.3098040000
0.5529410000 0.8666670000 0.3372550000
0.6176470000 0.8882355000 0.3843135000
0.6823530000 0.9137250000 0.4196080000
0.7549020000 0.9176470000 0.4509805000
0.8274510000 0.9372550000 0.5058820000
0.8980390000 0.9411765000 0.5372545000
0.9725490000 0.9568630000 0.5764710000
0.9960785000 0.9431375000 0.6176470000
0.9921570000 0.9333330000 0.6784310000
0.4235295000 0.8901960000 0.3529410000
0.4313725000 0.8921565000 0.3568630000
0.4333335000 0.8941175000 0.3607840000
0.4411765000 0.8901960000 0.3607845000
0.4549020000 0.8921565000 0.3666665000
0.4764705000 0.8960780000 0.3784315000
0.4941175000 0.8921565000 0.3843135000
0.5156860000 0.8941175000 0.3901960000
0.5627450000 0.9117645000 0.4235295000
0.6254905000 0.9176470000 0.4490195000
0.6862750000 0.9294115000 0.4823530000
0.7588235000 0.9392160000 0.5176470000
0.8215685000 0.9490195000 0.5450980000
0.8725495000 0.9529410000 0.5803925000
0.9372550000 0.9568630000 0.6117645000
0.9843135000 0.9607845000 0.6470590000
0.9882350000 0.9627450000 0.6882355000
0.5058820000 0.9411760000 0.4588240000
0.4941175000 0.9490195000 0.4705885000
0.5058820000 0.9529410000 0.4745100000
0.5156865000 0.9450980000 0.4843135000
0.5137250000 0.9490200000 0.4745100000
0.5294120000 0.9431375000 0.4882350000
0.5450980000 0.9490200000 0.4901960000
0.5705880000 0.9509805000 0.5078430000
0.6039220000 0.9529410000 0.5294120000
0.6568625000 0.9607845000 0.5431370000
0.7176470000 0.9686270000 0.5882350000
0.7764705000 0.9686270000 0.5941175000
0.8352940000 0.9686270000 0.6274510000
0.8941175000 0.9705880000 0.6509805000
0.9333330000 0.9764710000 0.6784310000
0.9725490000 0.9725490000 0.7019610000
1.0000000000 0.9686270000 0.7372550000
0.0607845000 0.1078430000 0.1000000000
0.0588235000 0.1117645000 0.0980395000
0.0686275000 0.1078430000 0.0862750000
0.0960785000 0.1058820000 0.0941175000
0.1470590000 0.1039215000 0.0921570000
0.2490195000 0.0980395000 0.0980395000
0.4078430000 0.0529410000 0.0862745000
0.5823525000 0.0019610000 0.0941175000
0.7294115000 0.0039215000 0.0843135000
0.8372550000 0.0019610000 0.0901960000
0.9137250000 0.0000000000 0.0980390000
0.9627450000 0.0039215000 0.1117650000
0.9960785000 0.0019610000 0.1392155000
0.9960785000 0.0254900000 0.1862745000
0.9941175000 0.0882355000 0.2294115000
0.9960785000 0.1803925000 0.2745100000
1.0000000000 0.2607840000 0.3235290000
0.0509800000 0.1137255000 0.0882355000
0.0588235000 0.1117645000 0.1019610000
0.0764705000 0.1117645000 0.0960785000
0.1098040000 0.1098035000 0.1019610000
0.1686275000 0.1156865000 0.0941175000
0.2803920000 0.1058825000 0.0980395000
0.4411765000 0.0803925000 0.0862745000
0.6156865000 0.0058825000 0.0980390000
0.7490200000 0.0019610000 0.0862745000
0.8411765000 0.0000000000 0.0823530000
0.9137255000 0.0039220000 0.1019610000
0.9764705000 0.0000000000 0.1196075000
1.0000000000 0.0137255000 0.1549020000
0.9980390000 0.0686275000 0.1941180000
0.9960780000 0.1372550000 0.2333330000
0.9980390000 0.2117645000 0.2823530000
0.9980390000 0.2745095000 0.3274505000
0.0588240000 0.1196080000 0.1078430000
0.0568630000 0.1176470000 0.1019610000
0.0823530000 0.1294120000 0.1039215000
0.1235295000 0.1294115000 0.0960785000
0.2176475000 0.1411765000 0.1000000000
0.3372545000 0.1392155000 0.0843135000
0.4941175000 0.1294120000 0.0823530000
0.6529410000 0.0882350000 0.0784315000
0.7647060000 0.0392155000 0.0647060000
0.8568630000 0.0254900000 0.0862745000
0.9294115000 0.0372550000 0.0941175000
0.9784310000 0.0666670000 0.1196080000
0.9980390000 0.0980390000 0.1588235000
1.0000000000 0.1450980000 0.2078435000
1.0000000000 0.2000000000 0.2470590000
0.9980390000 0.2529415000 0.2921570000
1.0000000000 0.3078435000 0.3392160000
0.0490195000 0.1392155000 0.0980395000
0.0470585000 0.1411765000 0.0960785000
0.0627450000 0.1490195000 0.0941180000
0.1196080000 0.1745095000 0.0960785000
0.2333335000 0.2000000000 0.0823530000
0.4137255000 0.2137255000 0.0823530000
0.5803920000 0.2078430000 0.0705885000
0.7058825000 0.2000000000 0.0568625000
0.8117650000 0.1862745000 0.0647060000
0.8764705000 0.1862745000 0.0823530000
0.9392155000 0.1862745000 0.1058825000
0.9843140000 0.1941175000 0.1411765000
0.9960785000 0.2078430000 0.1803920000
1.0000000000 0.2313725000 0.2215690000
1.0000000000 0.2686275000 0.2686275000
1.0000000000 0.3019610000 0.3156865000
1.0000000000 0.3509805000 0.3588235000
0.0254900000 0.1784315000 0.1000000000
0.0333335000 0.1784315000 0.1000000000
0.0431375000 0.1862745000 0.0980390000
0.1039215000 0.2137255000 0.0901960000
0.2333335000 0.2705885000 0.0686275000
0.4117645000 0.3196080000 0.0333330000
0.6117650000 0.3294120000 0.0196080000
0.7647055000 0.3137255000 0.0352940000
0.8411765000 0.3019610000 0.0411765000
0.9019605000 0.3019610000 0.0784315000
0.9627450000 0.2941175000 0.1274510000
0.9980390000 0.3000000000 0.1686275000
0.9941175000 0.3019610000 0.2019610000
0.9980390000 0.3196075000 0.2431375000
0.9980390000 0.3450980000 0.2941175000
1.0000000000 0.3745095000 0.3333335000
0.9980390000 0.4019610000 0.3882350000
0.0000000000 0.2372550000 0.0843140000
0.0000000000 0.2372550000 0.0901965000
0.0117645000 0.2392155000 0.0882355000
0.0823530000 0.2725490000 0.0823530000
0.2058825000 0.3196080000 0.0549020000
0.4019605000 0.3960785000 0.0019610000
0.6137255000 0.4372550000 0.0019610000
0.7450980000 0.4411765000 0.0039215000
0.8490200000 0.4352940000 0.0215685000
0.9352940000 0.4098040000 0.1039215000
0.9823530000 0.3980390000 0.1549015000
0.9980390000 0.3921570000 0.2019610000
0.9980390000 0.3960785000 0.2450980000
1.0000000000 0.3980395000 0.2921570000
0.9980390000 0.4176470000 0.3254900000
0.9980390000 0.4333330000 0.3705880000
0.9960780000 0.4607845000 0.4117645000
0.0058825000 0.3058820000 0.0803920000
0.0000000000 0.3098040000 0.0784315000
0.0000000000 0.3098035000 0.0803920000
0.0352940000 0.3254900000 0.0803920000
0.1725490000 0.3784315000 0.0411765000
0.3607845000 0.4470585000 0.0019610000
0.5647060000 0.5176470000 0.0000000000
0.7274510000 0.5509805000 0.0000000000
0.8274510000 0.5529410000 0.0058825000
0.9117650000 0.5333330000 0.0882350000
0.9784315000 0.5098040000 0.1921570000
1.0000000000 0.4921570000 0.2529410000
0.9941175000 0.4862745000 0.2882355000
1.0000000000 0.4843135000 0.3411765000
1.0000000000 0.4941175000 0.3803920000
0.9980390000 0.5078430000 0.4058825000
1.0000000000 0.5235295000 0.4529415000
0.0019610000 0.3843140000 0.0588235000
0.0000000000 0.3843140000 0.0529410000
0.0000000000 0.3882355000 0.0588235000
0.0039215000 0.3862745000 0.0549020000
0.1372550000 0.4352940000 0.0294115000
0.3215685000 0.4882355000 0.0039220000
0.5078430000 0.5509800000 0.0039215000
0.6705880000 0.6137255000 0.0000000000
0.7941175000 0.6450980000 0.0000000000
0.8901960000 0.6450980000 0.0901960000
0.9529410000 0.6117645000 0.2098040000
1.0000000000 0.5960785000 0.2705880000
0.9980390000 0.5764705000 0.3490195000
1.0000000000 0.5647055000 0.3901960000
0.9960785000 0.5686270000 0.4274510000
1.0000000000 0.5745100000 0.4509805000
0.9980390000 0.5843135000 0.4803920000
0.0019610000 0.4568630000 0.0215690000
0.0000000000 0.4588240000 0.0274510000
0.0000000000 0.4607845000 0.0294120000
0.0000000000 0.4588235000 0.0372550000
0.1098040000 0.4745100000 0.0352940000
0.2862745000 0.5313725000 0.0039215000
0.4627455000 0.5862745000 0.0019610000
0.6098040000 0.6450980000 0.0039215000
0.7470585000 0.7039215000 0.0039215000
0.8529415000 0.7235295000 0.0901960000
0.9333335000 0.7117645000 0.2176470000
0.9901960000 0.6921570000 0.3058825000
0.9960785000 0.6686275000 0.3725490000
0.9980390000 0.6568630000 0.4254900000
0.9960785000 0.6450980000 0.4725490000
1.0000000000 0.6411765000 0.5078430000
1.0000000000 0.6470590000 0.5235295000
0.0019610000 0.5176470000 0.0176470000
0.0019610000 0.5235290000 0.0196080000
0.0000000000 0.5215685000 0.0235295000
0.0215690000 0.5215685000 0.0274510000
0.0980390000 0.5274510000 0.0254905000
0.2627450000 0.5627450000 0.0372550000
0.4196080000 0.6098040000 0.0352940000
0.5607840000 0.6647060000 0.0568625000
0.6784315000 0.7235295000 0.0686275000
0.7901960000 0.7686275000 0.0980390000
0.8901960000 0.7843135000 0.2313725000
0.9686275000 0.7725490000 0.3196080000
0.9960785000 0.7450980000 0.3862745000
0.9980390000 0.7333330000 0.4372550000
0.9960785000 0.7156860000 0.4921565000
1.0000000000 0.7058825000 0.5372545000
1.0000000000 0.7039215000 0.5784310000
0.0000000000 0.5882355000 0.0274510000
0.0039220000 0.5823530000 0.0352940000
0.0019610000 0.5843140000 0.0372545000
0.0588235000 0.5843140000 0.0450980000
0.1470590000 0.5843140000 0.0588235000
0.2470590000 0.6000000000 0.0686275000
0.3862745000 0.6509800000 0.0803925000
0.5254900000 0.6921565000 0.1137255000
0.6352940000 0.7411760000 0.1549020000
0.7274510000 0.7843135000 0.2078430000
0.8392155000 0.8274510000 0.2529410000
0.9352940000 0.8333335000 0.3294120000
0.9901960000 0.8176470000 0.4156865000
0.9980390000 0.7980395000 0.4647060000
1.0000000000 0.7823530000 0.5235295000
0.9980390000 0.7705880000 0.5686275000
0.9960785000 0.7607840000 0.5980390000
0.0529410000 0.6431375000 0.0725490000
0.0686275000 0.6470585000 0.0686275000
0.1058825000 0.6470585000 0.0686275000
0.1588235000 0.6470585000 0.0843135000
0.2098040000 0.6431375000 0.0901960000
0.2647055000 0.6450980000 0.1098040000
0.3882350000 0.6823530000 0.1294115000
0.5058825000 0.7254905000 0.1686275000
0.5980395000 0.7686275000 0.2039215000
0.6843135000 0.8078430000 0.2568625000
0.7725490000 0.8392155000 0.3058825000
0.8823530000 0.8686275000 0.3450980000
0.9647060000 0.8725490000 0.4117645000
0.9960780000 0.8568630000 0.4901965000
1.0000000000 0.8372550000 0.5431370000
0.9980390000 0.8235295000 0.5960780000
0.9960780000 0.8117650000 0.6215685000
0.1843140000 0.7058825000 0.1294115000
0.1960785000 0.7117645000 0.1215685000
0.2137255000 0.7019605000 0.1254900000
0.2450985000 0.7078430000 0.1411765000
0.2803920000 0.7058820000 0.1431375000
0.3176470000 0.7137250000 0.1588235000
0.3901960000 0.7254905000 0.1803925000
0.4941175000 0.7588235000 0.2098040000
0.5705880000 0.7960780000 0.2529410000
0.6490195000 0.8274510000 0.2980390000
0.7196080000 0.8588235000 0.3411765000
0.8235295000 0.8843135000 0.3921565000
0.9196080000 0.9000000000 0.4333335000
0.9862745000 0.9039215000 0.5000000000
0.9960780000 0.8882355000 0.5784310000
0.9941175000 0.8666665000 0.6117650000
0.9980390000 0.8588240000 0.6431370000
0.2745095000 0.7764705000 0.1862745000
0.2901960000 0.7725490000 0.1901960000
0.3039215000 0.7666665000 0.2000000000
0.3176470000 0.7686275000 0.1960785000
0.3470585000 0.7705880000 0.2078435000
0.3764705000 0.7686275000 0.2117645000
0.4156865000 0.7745100000 0.2235295000
0.4862745000 0.7960785000 0.2607845000
0.5647055000 0.8274510000 0.2980390000
0.6313725000 0.8509805000 0.3372550000
0.7000000000 0.8803925000 0.3745095000
0.7843140000 0.9000000000 0.4254905000
0.8725490000 0.9117645000 0.4725490000
0.9411765000 0.9274510000 0.5098035000
0.9960785000 0.9215685000 0.5627450000
1.0000000000 0.9098040000 0.6313725000
0.9980390000 0.9000000000 0.6705885000
0.3647060000 0.8274510000 0.2647060000
0.3725490000 0.8372550000 0.2647060000
0.3764705000 0.8372550000 0.2764705000
0.3862745000 0.8333335000 0.2745100000
0.4058825000 0.8333335000 0.2901960000
0.4274510000 0.8333335000 0.2941180000
0.4568630000 0.8313730000 0.3098035000
0.4862745000 0.8450980000 0.3215685000
0.5549020000 0.8705885000 0.3568630000
0.6196080000 0.8901960000 0.3960785000
0.6843140000 0.9019605000 0.4254900000
0.7509805000 0.9176470000 0.4745095000
0.8274510000 0.9294120000 0.5019610000
0.8980395000 0.9470585000 0.5450980000
0.9627450000 0.9431370000 0.5803920000
1.0000000000 0.9392160000 0.6313730000
1.0000000000 0.9274510000 0.6960785000
0.4274510000 0.8901960000 0.3607845000
0.4313725000 0.8921570000 0.3607840000
0.4392160000 0.8901960000 0.3686275000
0.4431375000 0.8901960000 0.3705880000
0.4627450000 0.8921565000 0.3686275000
0.4725490000 0.8941175000 0.3764705000
0.4921570000 0.8980390000 0.3921570000
0.5117645000 0.9000000000 0.3960785000
0.5627450000 0.9117645000 0.4235295000
0.6235290000 0.9196080000 0.4509805000
0.6823530000 0.9294120000 0.4862745000
0.7509805000 0.9411765000 0.5156865000
0.8156865000 0.9529415000 0.5588235000
0.8803925000 0.9568630000 0.5862745000
0.9352940000 0.9568625000 0.6156860000
0.9882355000 0.9588235000 0.6627450000
0.9960785000 0.9529410000 0.6882355000
0.5039215000 0.9411760000 0.4745100000
0.5000000000 0.9450980000 0.4764705000
0.5117645000 0.9470590000 0.4725490000
0.5176470000 0.9490200000 0.4803920000
0.5215685000 0.9490195000 0.4823530000
0.5372545000 0.9450980000 0.4882355000
0.5529415000 0.9509805000 0.5019610000
0.5686275000 0.9490200000 0.5078430000
0.6039220000 0.9470590000 0.5215685000
0.6529410000 0.9588235000 0.5549015000
0.7098040000 0.9666665000 0.5705880000
0.7745100000 0.9686270000 0.6019610000
0.8333335000 0.9705880000 0.6294120000
0.8921565000 0.9686270000 0.6509805000
0.9313725000 0.9705880000 0.6843140000
0.9764705000 0.9666665000 0.7117650000
1.0000000000 0.9647055000 0.7431370000
0.0549020000 0.1098040000 0.1098040000
0.0666665000 0.1098040000 0.1117645000
0.0666670000 0.1058820000 0.1019610000
0.0941175000 0.1098035000 0.1039215000
0.1450980000 0.1058820000 0.1098040000
0.2294115000 0.0960785000 0.1254905000
0.3490200000 0.0588240000 0.1176470000
0.5313725000 0.0039220000 0.1215690000
0.6901960000 0.0078430000 0.1176470000
0.8078430000 0.0039220000 0.1372550000
0.8901960000 0.0039220000 0.1607840000
0.9509805000 0.0000000000 0.1784315000
1.0000000000 0.0039220000 0.2078430000
1.0000000000 0.1000000000 0.2470590000
1.0000000000 0.1843140000 0.2784310000
0.9941175000 0.2568625000 0.3235295000
1.0000000000 0.3137250000 0.3647060000
0.0450980000 0.1156865000 0.1117645000
0.0627455000 0.1117645000 0.1039215000
0.0686275000 0.1117645000 0.1058820000
0.1000000000 0.1137255000 0.0980390000
0.1529415000 0.1137255000 0.1098035000
0.2509805000 0.1078430000 0.1196075000
0.3901965000 0.0803920000 0.1235295000
0.5549020000 0.0156860000 0.1196080000
0.7137255000 0.0000000000 0.1254900000
0.8137255000 0.0019610000 0.1372550000
0.8960785000 0.0000000000 0.1509805000
0.9607845000 0.0235295000 0.1823530000
1.0000000000 0.0745095000 0.2137255000
0.9960785000 0.1490195000 0.2509805000
0.9960785000 0.2176470000 0.2921570000
0.9980390000 0.2705880000 0.3352940000
